svg/discount-icon.svg

<svg xmlns="http://www.w3.org/2000/svg" preserveAspectRatio="xMidYMid" width="22" height="20" viewBox="0 0 22 20"><defs/><path d="M21.409 11.948c-2.262 2.421-4.536 4.833-6.805 7.248-.891.974-2.535 1.077-3.544.23-2.835-2.352-5.658-4.719-8.491-7.073-.98-.776-1.606-1.92-1.956-3.102C.404 8.589.429 7.888.36 7.204.233 5.857.119 4.508-.009 3.16-.196 1.556 1.302.062 2.881.088 3.742.08 4.602.068 5.463.057 6.459.046 7.456.037 8.452 0c1.562.043 3.153.564 4.331 1.616 2.802 2.346 5.616 4.676 8.415 7.025.973.793 1.082 2.396.211 3.307zm-.724-2.157c-.177-.321-.491-.53-.763-.763-2.742-2.28-5.476-4.568-8.218-6.849C10.609 1.35 9.182 1.012 7.823 1.1c-1.714.042-3.431.025-5.143.084-.905.142-1.676 1.054-1.526 1.988.161 1.727.315 3.454.463 5.182.189 1.279.838 2.53 1.883 3.315 2.602 2.165 5.201 4.335 7.801 6.502.366.294.715.679 1.209.73.488.077.983-.138 1.301-.505 2.224-2.377 4.459-4.745 6.682-7.122a1.294 1.294 0 0 0 .192-1.483zM5.167 8.1c-.853-.459-1.423-1.426-1.333-2.402.069-1.05.878-1.96 1.874-2.248 1.286-.416 2.837.254 3.336 1.527.373.893.136 1.987-.554 2.661-.842.873-2.273 1.057-3.323.462zm.922-3.62c-.676.186-1.194.882-1.084 1.591.096.797.904 1.392 1.693 1.279.806-.062 1.484-.859 1.34-1.673-.119-.881-1.114-1.467-1.949-1.197z" class="cls-1"/></svg>

<svg xmlns="http://www.w3.org/2000/svg" xmlns:xlink="http://www.w3.org/1999/xlink" preserveAspectRatio="xMidYMid" width="22" height="20" viewBox="0 0 22 20">
  <defs>
    <style>
      .cls-1 {
        fill: #ea202c;
        fill-rule: evenodd;
      }
    </style>
  </defs>
  <path d="M21.409,11.948 C19.147,14.369 16.873,16.781 14.604,19.196 C13.713,20.170 12.069,20.273 11.060,19.426 C8.225,17.074 5.402,14.707 2.569,12.353 C1.589,11.577 0.963,10.433 0.613,9.251 C0.404,8.589 0.429,7.888 0.360,7.204 C0.233,5.857 0.119,4.508 -0.009,3.160 C-0.196,1.556 1.302,0.062 2.881,0.088 C3.742,0.080 4.602,0.068 5.463,0.057 C6.459,0.046 7.456,0.037 8.452,-0.000 C10.014,0.043 11.605,0.564 12.783,1.616 C15.585,3.962 18.399,6.292 21.198,8.641 C22.171,9.434 22.280,11.037 21.409,11.948 ZM20.685,9.791 C20.508,9.470 20.194,9.261 19.922,9.028 C17.180,6.748 14.446,4.460 11.704,2.179 C10.609,1.350 9.182,1.012 7.823,1.100 C6.109,1.142 4.392,1.125 2.680,1.184 C1.775,1.326 1.004,2.238 1.154,3.172 C1.315,4.899 1.469,6.626 1.617,8.354 C1.806,9.633 2.455,10.884 3.500,11.669 C6.102,13.834 8.701,16.004 11.301,18.171 C11.667,18.465 12.016,18.850 12.510,18.901 C12.998,18.978 13.493,18.763 13.811,18.396 C16.035,16.019 18.270,13.651 20.493,11.274 C20.866,10.888 20.941,10.261 20.685,9.791 ZM5.167,8.100 C4.314,7.641 3.744,6.674 3.834,5.698 C3.903,4.648 4.712,3.738 5.708,3.450 C6.994,3.034 8.545,3.704 9.044,4.977 C9.417,5.870 9.180,6.964 8.490,7.638 C7.648,8.511 6.217,8.695 5.167,8.100 ZM6.089,4.480 C5.413,4.666 4.895,5.362 5.005,6.071 C5.101,6.868 5.909,7.463 6.698,7.350 C7.504,7.288 8.182,6.491 8.038,5.677 C7.919,4.796 6.924,4.210 6.089,4.480 Z" class="cls-1"/>
</svg>
